packages/foundations/assets/icons/functional/images/environment/leaf_32.svg

<svg width="32" height="32" viewBox="0 0 32 32" fill="none" xmlns="http://www.w3.org/2000/svg">
<g clip-path="url(#clip0_185_811)">
<path fill-rule="evenodd" clip-rule="evenodd" d="M29.0981 7.32794C29.6835 7.40331 30.0463 8.00526 29.8931 8.57353C27.6119 17.0379 24.0027 22.1026 19.5745 24.0613C16.3781 25.4752 12.9012 25.0633 10.7488 23.4988C9.11576 23.9572 7.42246 24.1685 5.72691 23.9971C4.67755 23.8911 3.69274 23.6718 2.71373 23.3037C1.49654 22.7582 2.16636 21.0043 3.42285 21.4337C4.2256 21.7381 5.05522 21.9255 5.91019 22.0055C10.1971 22.4067 14.4507 20.0656 17.7696 17.5798C19.3561 16.4039 20.9521 14.9682 22.5578 13.2726C23.3675 12.3703 24.8264 13.4276 24.1268 14.4984C24.1268 14.4984 22.3969 16.4562 20.3622 18.0815C18.3205 19.7586 16.0082 21.3875 13.294 22.5794C14.8734 23.1157 19.3706 23.7447 23.5205 18.1654C25.1539 15.8702 26.5292 12.8709 27.6463 9.1675C25.4493 9.00633 23.4775 9.06985 21.7309 9.35807C17.6424 10.0711 12.8542 12.0171 10.7482 17.6639C10.3561 18.7013 8.53337 18.471 8.87894 16.9527C10.139 13.6073 12.5935 10.4895 16.857 8.68023C20.0252 7.35228 24.3667 6.66813 29.0981 7.32794Z" fill="#1A1C1F"/>
</g>
<defs>
<clipPath id="clip0_185_811">
<rect width="32" height="32" fill="white"/>
</clipPath>
</defs>
</svg>

<svg xmlns="http://www.w3.org/2000/svg" width="32" height="32" fill="none"><g clip-path="url(#a)"><path fill="#1A1C1F" fill-rule="evenodd" d="M29.098 7.328c.585.075.948.677.795 1.246-2.281 8.464-5.89 13.529-10.318 15.487-3.197 1.414-6.674 1.002-8.826-.562-1.633.458-3.327.67-5.022.498a11.8 11.8 0 0 1-3.013-.693c-1.217-.546-.548-2.3.709-1.87a9.5 9.5 0 0 0 2.487.572c4.287.4 8.54-1.94 11.86-4.426q2.379-1.764 4.788-4.307c.81-.903 2.268.155 1.569 1.225 0 0-1.73 1.958-3.765 3.583-2.041 1.678-4.354 3.307-7.068 4.498 1.58.537 6.077 1.166 10.226-4.414q2.451-3.443 4.126-8.997-3.296-.242-5.915.19c-4.089.713-8.877 2.66-10.983 8.306-.392 1.037-2.215.807-1.87-.711 1.261-3.346 3.716-6.463 7.979-8.273 3.168-1.328 7.51-2.012 12.241-1.352" clip-rule="evenodd"/></g><defs><clipPath id="a"><path fill="#fff" d="M0 0h32v32H0z"/></clipPath></defs></svg>
